/* XPM */
static char * box_xpm[] = {
"25 25 3 1",
" 	c #959595",
".	c #151515",
"+	c #2B2B2B",
"                        .",
"                       ..",
"  +++++++++++++++++++++..",
"  +++++++++++++++++++++..",
"  +++++++++++++++++++++..",
"  +++++++++++++++++++++..",
"  ++++            .++++..",
"  ++++ +++++++++++.++++..",
"  ++++ +++++++++++.++++..",
"  ++++ +++++++++++.++++..",
"  ++++ +++++++++++.++++..",
"  ++++ +++++++++++.++++..",
"  ++++ +++++++++++.++++..",
"  ++++ +++++++++++.++++..",
"  ++++ +++++++++++.++++..",
"  ++++ +++++++++++.++++..",
"  ++++ +++++++++++.++++..",
"  ++++ +++++++++++.++++..",
"  ++++.............++++..",
"  +++++++++++++++++++++..",
"  +++++++++++++++++++++..",
"  +++++++++++++++++++++..",
"  +++++++++++++++++++++..",
" ........................",
"........................."};
